X: 1879
T: Arniston Castle
R: strathspey
M: 4/4
K: Amajor
|:a/|e>Ae>c A>ce>c|d<ac<a B>A (3Bcd|e>Ae>c A>ce>c|d>f (3efg a<AA3/2:|
|:B/|A<aa>f e>fe>c|d<ac<a B>AG>B|1 A<aa>f e>fe>c|d>f (3efg a<AA3/2:|
[2 A>cB>d c>ed>f|e>fg>e a<AA3/2||
a/|e>de>c A>ce>c|A>ce>c d<B (3Bcd|e>de>c A>ce>c|d>fe>d c<AA>a|
e>de>c A>ce>d|(3cAc e>c d<B (3Bcd|e>de>c A>ce>c|d>fe>d c<AA3/2||
f/|e<ac<a d>gf>e|(3fga c>e f<BB>f|e<ac<a d>gf>e|(3fga e>d c<AA>f|
e<ac<a d>gf>e|(3fga c>e f<BB>e|a>ef>d c<ea>e|f>d (3Bcd c<AA3/2||

